images/contacts-region.svg

<svg width="635" height="403" viewBox="0 0 635 403" fill="none" xmlns="http://www.w3.org/2000/svg">
<path d="M13.4282 28.5L8.42825 42.5C9.26174 43.3333 11.8287 45.4 15.4287 47C19.9287 49 44.9282 57.5 47.4287 58C49.4291 58.4 46.5952 63.1667 44.9282 65.5L49.4287 74.5L48.4287 86C49.9287 88.5 53.5287 93.9 55.9287 95.5C57.1291 98.3 59.4289 103 60.4287 105L64.9287 130C64.2619 131.5 62.4283 134.7 60.4287 135.5C58.4291 136.3 59.5955 139.167 60.4287 140.5L48.4287 146C49.9287 147.667 52.9287 152 52.9287 156C52.9287 161 54.4282 165.5 57.9282 171.5C60.7282 176.3 59.0949 177.167 57.9282 177C57.4284 177 56.0286 177.2 54.4282 178C52.8279 178.8 51.0951 175.667 50.4287 174H45.9287L38.4282 184L22.4287 176L19.4282 177H16.9287C15.0954 182.667 11.4287 194.3 11.4287 195.5C11.4287 197 12.4287 207 11.4287 210.5C10.4287 214 13.4287 211.5 13.4287 217.5C13.4287 222.3 9.09507 224.167 6.92825 224.5C5.09492 225.667 1.82825 229.2 3.42825 234C8.22825 237.2 9.42825 239.667 9.42825 240.5C11.7616 242 17.0282 245 19.4282 245C21.8282 245 34.7616 247.333 40.9282 248.5L42.4282 252.5L34.9282 255L38.4282 265.5V270H42.4282L48.9282 279.5C50.2616 277.333 53.2282 272.7 54.4282 271.5C55.6283 270.3 57.2616 271 57.9282 271.5L62.9282 276V278C63.7616 277.333 65.6283 276 66.4282 276C67.2282 276 67.4283 277.333 67.4283 278L57.9282 284C61.0949 288.667 68.3283 300.3 71.9283 309.5C76.4283 321 94.9283 336.5 99.9283 341C103.928 344.6 113.262 349.833 117.428 352L121.428 350C121.595 348.667 121.828 345.7 121.428 344.5C121.028 343.3 125.595 341.667 127.928 341C128.595 341.833 129.928 343.7 129.928 344.5V352L131.928 357C131.928 359.833 132.228 366.1 133.428 368.5C130.628 373.7 126.262 375.333 124.428 375.5V378.5L127.928 379.5L129.928 382L131.928 383L129.928 398L168.428 400.5L179.428 393V383L191.428 369.5L195.428 371C196.762 368.5 200.928 362.7 206.928 359.5C212.928 356.3 214.762 358.167 214.928 359.5C216.262 359.333 219.828 357.8 223.428 353C221.428 353 219.428 351 218.928 350C218.428 349 223.928 339 231.428 339C237.428 339 244.262 333.333 246.928 330.5C245.595 329.167 242.928 325.8 242.928 323C242.928 319.5 240.428 318.5 233.928 314C228.728 310.4 229.095 303.5 229.928 300.5C231.095 299.833 233.328 298.4 232.928 298C232.528 297.6 230.762 295.5 229.928 294.5L236.428 285.5L226.928 284C226.928 277 227.528 262.6 229.928 261C242.428 254 251.428 230 253.928 220.5C256.428 211 267.928 208 267.928 200C267.928 192 272.928 193 276.928 197C280.928 201 291.428 197.5 297.428 197C303.428 196.5 295.928 181 291.428 174.5C295.028 172.5 298.262 168.333 299.428 166.5H303.928C304.928 166.5 302.428 169.5 311.928 173C325.928 178.5 349.928 177.5 353.928 182C357.928 186.5 357.928 211 358.428 212.5C358.828 213.7 370.262 226 375.928 232H373.928C374.428 233 375.928 235.2 377.928 236C381.428 243.5 378.928 244 380.928 249.5C384.128 249.1 388.595 251.333 390.428 252.5L398.928 240.5C401.928 243.667 408.328 250.5 409.928 252.5C411.928 255 407.928 258 407.928 259C407.928 260 424.928 255.5 426.928 253.5C428.528 251.9 431.262 251.167 432.428 251C432.262 247 430.928 236.9 426.928 228.5C421.928 218 421.928 205.5 424.928 198.5C427.928 191.5 425.428 186.5 424.928 184C424.428 181.5 428.428 183.5 428.928 184C429.328 184.4 429.762 179.833 429.928 177.5C433.095 179 439.928 182.5 441.928 184.5C444.428 187 446.428 185.5 450.428 181C454.428 176.5 461.928 173.5 464.928 171.5C467.928 169.5 469.928 168 474.428 167C478.928 166 476.928 160 480.428 161C483.928 162 491.428 165.5 491.928 166C492.328 166.4 487.095 171.167 484.428 173.5C484.262 174 486.428 175.9 496.428 179.5C506.428 183.1 513.262 181 515.428 179.5C521.262 184.667 533.428 195.6 535.428 198C537.928 201 539.428 199.5 541.928 198.5C544.428 197.5 544.928 199 549.428 200C553.928 201 560.428 195 560.428 186.5C562.428 185.3 562.595 181.333 562.428 179.5C564.095 180.5 567.828 182.1 569.428 180.5C567.928 165.5 572.428 158.5 572.928 158.5C573.428 158.5 580.428 158 582.428 161.5C584.028 164.3 585.762 163.667 586.428 163C586.428 162.5 586.328 161.2 585.928 160C585.528 158.8 591.428 154.167 594.428 152C599.762 156.667 611.228 166 614.428 166C614.428 172.5 617.428 170.5 618.928 172C620.428 173.5 621.428 160 621.428 159C621.428 158 626.928 157.5 626.928 153C626.928 149.4 625.595 147.833 624.928 147.5C626.928 146.333 631.128 142.4 631.928 136C632.928 128 632.928 130.5 624.928 124C616.928 117.5 613.428 117.5 610.428 117.5C607.428 117.5 603.928 112.5 600.428 111C597.628 109.8 594.262 99.8333 592.928 95C593.095 94.6667 592.228 94.1 587.428 94.5C581.428 95 579.428 89.5 577.928 86.5C576.428 83.5 571.928 85.5 574.928 82.5C577.928 79.5 578.428 75.5 577.928 74.5C577.428 73.5 564.928 72 563.928 72.5C563.128 72.9 560.595 77.3333 559.428 79.5C558.762 79.1667 556.428 78.9 552.428 80.5C547.428 82.5 548.928 79.5 541.428 86.5C533.928 93.5 534.928 98.5 534.428 101.5C533.928 104.5 533.928 101 530.928 101C528.528 101 526.595 103.333 525.928 104.5C525.428 103.667 524.028 101.8 522.428 101C520.828 100.2 520.762 102.333 520.928 103.5C518.595 102.667 513.228 101 510.428 101C506.928 101 508.928 95.5 511.928 93.5C514.928 91.5 515.428 85.5 513.928 83C512.428 80.5 515.428 76.5 517.928 74C520.35 71.5786 519.957 67.2809 519.475 62.0157L519.428 61.5C519.028 57.1 521.262 51 522.428 48.5C520.428 48.8333 515.228 49.8 510.428 51C504.428 52.5 503.428 56.5 500.428 59C497.428 61.5 498.928 56 498.428 55C497.928 54 475.928 51.5 472.928 51.5C469.928 51.5 465.928 47 461.928 47C457.928 47 456.928 45.5 456.428 43C455.928 40.5 461.428 27.5 460.928 23C459.928 21 455.428 25 452.428 27.5C449.428 30 444.428 31 447.428 37C450.428 43 449.428 43 448.928 49.5C445.928 50.5 441.428 47.5 439.928 47C438.728 46.6 439.428 44.1667 439.928 43C437.428 41.8333 431.628 39.8 428.428 41C425.228 42.2 424.095 48.5 423.928 51.5L391.928 38.5L388.928 49.5C389.928 47.8333 392.128 45.9 392.928 51.5C393.928 58.5 386.428 53.5 388.928 59C391.428 64.5 391.928 63.5 393.928 67.5C395.928 71.5 393.928 69 396.428 73C398.428 76.2 397.928 77.3333 397.428 77.5C396.762 78 394.928 79 392.928 79C386.528 80.6 383.928 86 383.428 88.5C382.095 86.5 379.228 81.8 378.428 79C377.628 76.2 369.428 73.8333 365.428 73C363.595 70.8333 359.328 66.5 356.928 66.5C354.428 53 353.428 46.5 351.928 45.5C350.728 44.7 329.428 45.1667 318.928 45.5V36C316.928 34.5 311.928 31.2 307.928 30C302.928 28.5 302.928 26.5 303.428 30C303.928 33.5 300.428 33.5 299.928 36C299.428 38.5 296.928 37.5 293.428 38C289.928 38.5 287.428 34.5 279.428 34.5C273.028 34.5 269.762 31.5 268.928 30C268.928 30.5 268.728 31.9 267.928 33.5C266.928 35.5 264.928 32.5 246.928 30.5C228.928 28.5 194.428 32.5 190.428 33C186.428 33.5 177.428 31 170.428 30.5C163.428 30 166.428 27.5 161.928 28C158.328 28.4 151.428 25.8333 148.428 24.5C146.928 23.6667 143.828 22.5 143.428 24.5C142.228 34.9 136.928 38.8333 134.428 39.5L133.428 37.5C132.095 37.1667 129.128 36.7 127.928 37.5C126.328 33.5 122.928 35.8333 121.428 37.5C117.762 34 109.428 25.5 105.428 19.5C101.428 13.5 103.762 9.33333 105.428 8L74.4283 2C74.0949 2.33333 72.2283 4.5 67.4283 10.5C61.4283 18 64.9282 17 60.9282 20.5C57.7282 23.3 48.9282 19.3333 44.9282 17L38.4282 24.5C39.0949 26.3333 39.3283 30.5 34.9282 32.5C30.5282 34.5 18.7616 30.6667 13.4282 28.5Z" stroke="url(#paint0_linear)" stroke-width="4" stroke-linecap="round" stroke-linejoin="round"/>
<path d="M72.3332 65.0084V85.6209C72.3332 86.6928 72.759 87.7208 73.517 88.4788C74.275 89.2367 75.303 89.6625 76.3749 89.6625C77.4468 89.6625 78.4748 89.2367 79.2328 88.4788C79.9907 87.7208 80.4165 86.6928 80.4165 85.6209V65.0084C85.3233 64.0068 89.6834 61.219 92.6515 57.1854C95.6196 53.1518 96.9842 48.1598 96.4809 43.1772C95.9775 38.1946 93.642 33.5764 89.9272 30.218C86.2124 26.8595 81.3828 25 76.3749 25C71.3669 25 66.5374 26.8595 62.8226 30.218C59.1077 33.5764 56.7722 38.1946 56.2689 43.1772C55.7655 48.1598 57.1302 53.1518 60.0983 57.1854C63.0664 61.219 67.4265 64.0068 72.3332 65.0084Z" fill="#C20E1A"/>
<ellipse cx="67" cy="37.0001" rx="2" ry="5" transform="rotate(32.8571 67 37.0001)" fill="white" fill-opacity="0.5"/>
<path d="M70.5954 38.3679C66.2795 42.7771 63.415 49.2823 61.3418 47.9434C59.2686 46.6044 59.7403 38.7019 63.0878 33.519C66.4353 28.3361 73.2685 26.6046 75.3417 27.9435C77.4148 29.2825 75.3417 33.519 70.5954 38.3679Z" fill="white" fill-opacity="0.3"/>
<defs>
<linearGradient id="paint0_linear" x1="317.691" y1="2" x2="317.691" y2="400.5" gradientUnits="userSpaceOnUse">
<stop stop-color="#BDA180"/>
<stop offset="0.113269" stop-color="#AD844C"/>
<stop offset="1" stop-color="#BDA180"/>
</linearGradient>
</defs>
</svg>

<svg width="635" height="403" fill="none" xmlns="http://www.w3.org/2000/svg"><path d="M13.428 28.5l-5 14c.834.833 3.4 2.9 7 4.5 4.5 2 29.5 10.5 32 11 2.001.4-.833 5.167-2.5 7.5l4.5 9-1 11.5c1.5 2.5 5.1 7.9 7.5 9.5 1.201 2.8 3.5 7.5 4.5 9.5l4.5 25c-.666 1.5-2.5 4.7-4.5 5.5-1.999.8-.832 3.667 0 5l-12 5.5c1.5 1.667 4.5 6 4.5 10 0 5 1.5 9.5 5 15.5 2.8 4.8 1.167 5.667 0 5.5-.5 0-1.9.2-3.5 1s-3.333-2.333-4-4h-4.5l-7.5 10-16-8-3 1h-2.5c-1.833 5.667-5.5 17.3-5.5 18.5 0 1.5 1 11.5 0 15s2 1 2 7c0 4.8-4.333 6.667-6.5 7-1.833 1.167-5.1 4.7-3.5 9.5 4.8 3.2 6 5.667 6 6.5 2.334 1.5 7.6 4.5 10 4.5 2.4 0 15.334 2.333 21.5 3.5l1.5 4-7.5 2.5 3.5 10.5v4.5h4l6.5 9.5c1.334-2.167 4.3-6.8 5.5-8 1.2-1.2 2.834-.5 3.5 0l5 4.5v2c.834-.667 2.7-2 3.5-2 .8 0 1 1.333 1 2l-9.5 6c3.167 4.667 10.4 16.3 14 25.5 4.5 11.5 23 27 28 31.5 4 3.6 13.334 8.833 17.5 11l4-2c.167-1.333.4-4.3 0-5.5-.4-1.2 4.167-2.833 6.5-3.5.667.833 2 2.7 2 3.5v7.5l2 5c0 2.833.3 9.1 1.5 11.5-2.8 5.2-7.166 6.833-9 7v3l3.5 1 2 2.5 2 1-2 15 38.5 2.5 11-7.5v-10l12-13.5 4 1.5c1.334-2.5 5.5-8.3 11.5-11.5 6-3.2 7.834-1.333 8 0 1.334-.167 4.9-1.7 8.5-6.5-2 0-4-2-4.5-3s5-11 12.5-11c6 0 12.834-5.667 15.5-8.5-1.333-1.333-4-4.7-4-7.5 0-3.5-2.5-4.5-9-9-5.2-3.6-4.833-10.5-4-13.5 1.167-.667 3.4-2.1 3-2.5-.4-.4-2.166-2.5-3-3.5l6.5-9-9.5-1.5c0-7 .6-21.4 3-23 12.5-7 21.5-31 24-40.5s14-12.5 14-20.5 5-7 9-3 14.5.5 20.5 0-1.5-16-6-22.5c3.6-2 6.834-6.167 8-8h4.5c1 0-1.5 3 8 6.5 14 5.5 38 4.5 42 9s4 29 4.5 30.5c.4 1.2 11.834 13.5 17.5 19.5h-2c.5 1 2 3.2 4 4 3.5 7.5 1 8 3 13.5 3.2-.4 7.667 1.833 9.5 3l8.5-12c3 3.167 9.4 10 11 12 2 2.5-2 5.5-2 6.5s17-3.5 19-5.5c1.6-1.6 4.334-2.333 5.5-2.5-.166-4-1.5-14.1-5.5-22.5-5-10.5-5-23-2-30s.5-12 0-14.5 3.5-.5 4 0c.4.4.834-4.167 1-6.5 3.167 1.5 10 5 12 7 2.5 2.5 4.5 1 8.5-3.5s11.5-7.5 14.5-9.5 5-3.5 9.5-4.5 2.5-7 6-6 11 4.5 11.5 5c.4.4-4.833 5.167-7.5 7.5-.166.5 2 2.4 12 6s16.834 1.5 19 0c5.834 5.167 18 16.1 20 18.5 2.5 3 4 1.5 6.5.5s3 .5 7.5 1.5 11-5 11-13.5c2-1.2 2.167-5.167 2-7 1.667 1 5.4 2.6 7 1-1.5-15 3-22 3.5-22s7.5-.5 9.5 3c1.6 2.8 3.334 2.167 4 1.5 0-.5-.1-1.8-.5-3s5.5-5.833 8.5-8c5.334 4.667 16.8 14 20 14 0 6.5 3 4.5 4.5 6s2.5-12 2.5-13 5.5-1.5 5.5-6c0-3.6-1.333-5.167-2-5.5 2-1.167 6.2-5.1 7-11.5 1-8 1-5.5-7-12s-11.5-6.5-14.5-6.5-6.5-5-10-6.5c-2.8-1.2-6.166-11.167-7.5-16 .167-.333-.7-.9-5.5-.5-6 .5-8-5-9.5-8s-6-1-3-4 3.5-7 3-8-13-2.5-14-2c-.8.4-3.333 4.833-4.5 7-.666-.333-3-.6-7 1-5 2-3.5-1-11 6s-6.5 12-7 15-.5-.5-3.5-.5c-2.4 0-4.333 2.333-5 3.5-.5-.833-1.9-2.7-3.5-3.5-1.6-.8-1.666 1.333-1.5 2.5-2.333-.833-7.7-2.5-10.5-2.5-3.5 0-1.5-5.5 1.5-7.5s3.5-8 2-10.5 1.5-6.5 4-9c2.422-2.421 2.029-6.72 1.547-11.984l-.047-.516c-.4-4.4 1.834-10.5 3-13-2 .333-7.2 1.3-12 2.5-6 1.5-7 5.5-10 8s-1.5-3-2-4-22.5-3.5-25.5-3.5-7-4.5-11-4.5-5-1.5-5.5-4 5-15.5 4.5-20c-1-2-5.5 2-8.5 4.5s-8 3.5-5 9.5 2 6 1.5 12.5c-3 1-7.5-2-9-2.5-1.2-.4-.5-2.833 0-4-2.5-1.167-8.3-3.2-11.5-2-3.2 1.2-4.333 7.5-4.5 10.5l-32-13-3 11c1-1.667 3.2-3.6 4 2 1 7-6.5 2-4 7.5s3 4.5 5 8.5 0 1.5 2.5 5.5c2 3.2 1.5 4.333 1 4.5-.666.5-2.5 1.5-4.5 1.5-6.4 1.6-9 7-9.5 9.5-1.333-2-4.2-6.7-5-9.5-.8-2.8-9-5.167-13-6-1.833-2.167-6.1-6.5-8.5-6.5-2.5-13.5-3.5-20-5-21-1.2-.8-22.5-.333-33 0V36c-2-1.5-7-4.8-11-6-5-1.5-5-3.5-4.5 0s-3 3.5-3.5 6-3 1.5-6.5 2-6-3.5-14-3.5c-6.4 0-9.666-3-10.5-4.5 0 .5-.2 1.9-1 3.5-1 2-3-1-21-3s-52.5 2-56.5 2.5-13-2-20-2.5-4-3-8.5-2.5c-3.6.4-10.5-2.167-13.5-3.5-1.5-.833-4.6-2-5 0-1.2 10.4-6.5 14.333-9 15l-1-2c-1.333-.333-4.3-.8-5.5 0-1.6-4-5-1.667-6.5 0-3.666-3.5-12-12-16-18s-1.666-10.167 0-11.5l-31-6c-.333.333-2.2 2.5-7 8.5-6 7.5-2.5 6.5-6.5 10-3.2 2.8-12-1.167-16-3.5l-6.5 7.5c.667 1.833.9 6-3.5 8s-16.166-1.833-21.5-4z" stroke="url(#paint0_linear)" stroke-width="4" stroke-linecap="round" stroke-linejoin="round"/><path d="M72.333 65.008v20.613a4.042 4.042 0 008.084 0V65.008a20.208 20.208 0 10-8.084 0z" fill="#C20E1A"/><ellipse cx="67" cy="37" rx="2" ry="5" transform="rotate(32.857 67 37)" fill="#fff" fill-opacity=".5"/><path d="M70.595 38.368c-4.316 4.41-7.18 10.914-9.253 9.575-2.073-1.339-1.602-9.241 1.746-14.424 3.347-5.183 10.18-6.914 12.254-5.575 2.073 1.338 0 5.575-4.747 10.424z" fill="#fff" fill-opacity=".3"/><defs><linearGradient id="paint0_linear" x1="317.691" y1="2" x2="317.691" y2="400.5" gradientUnits="userSpaceOnUse"><stop stop-color="#BDA180"/><stop offset=".113" stop-color="#AD844C"/><stop offset="1" stop-color="#BDA180"/></linearGradient></defs></svg>
